outputs/icons/audio_video/fast_forward_round.svg

<svg width="1200" height="1200" viewBox="0 0 1200 1200" fill="none" xmlns="http://www.w3.org/2000/svg"><g clip-path="url(#clip0_231_5122)"><path d="M279 844.5L567.5 641C595.5 621 595.5 579 567.5 559.5L279 355.501C245.5 332.501 200 356.001 200 396.501V803.5C200 844 245.5 867.5 279 844.5ZM650 396.501V803.5C650 844 695.5 867.5 729 844.5L1017.5 641C1045.5 621 1045.5 579 1017.5 559.5L729 356.001C695.5 332.501 650 356.001 650 396.501Z" fill="black"/></g><defs><clipPath id="clip0_231_5122"><path width="24" fill="white" d="M0 0H1200V1200H0V0z"/></clipPath></defs></svg>

<svg xmlns="http://www.w3.org/2000/svg" width="1200" height="1200" fill="none"><g clip-path="url(#a)"><path fill="#000" d="M279 844.5 567.5 641c28-20 28-62 0-81.5L279 355.501c-33.5-23-79 .5-79 41V803.5c0 40.5 45.5 64 79 41m371-447.999V803.5c0 40.5 45.5 64 79 41L1017.5 641c28-20 28-62 0-81.5L729 356.001c-33.5-23.5-79 0-79 40.5"/></g><defs><clipPath id="a"><path fill="#fff" d="M0 0h1200v1200H0z"/></clipPath></defs></svg>
